X: 52
T:Reel Béatrice
M:2/4
L:1/16
C:Trad.
S:Arr. Chris Ricker
R:Reel
K:D %Transposed from AM
B,3C|:D2B,D FB,DF|BFFD F2Bc|ddBd fBdf|bf (3fff bfbc'|
d'c'ba gfed|cee^d e4|f=f^fg fedc|1B3 B, B,3 C:|2B3 B, B,2 z2||
|:b2 gb c'g (3ggg|gf=f^f bf (3fff|f=f^fg feec|dedc B2 b2|
bbgb c'g (3ggg|gf=f^f bf (3fff|f=f^fg fedc|1B2 z B, B,3 z:|2B2 z4 A>c||
|:dA (3AAA FAdf|dA (3AAA FAdf|ec (3ccc Acec|dd'c'b agfe|
dA (3AAA FAdf|dA (3AAA FAdf|ec (3ccc Acec|1dcde d2 Ac:|2dcde d2 z2||

